public/assets/images/right_svg.svg

<svg width="58" height="16" xmlns="http://www.w3.org/2000/svg" fill="none">

 <g>
  <title>Layer 1</title>
  <path opacity="0.4" id="svg_1" fill="#3594E3" d="m1,7c-0.55229,0 -1,0.44772 -1,1c0,0.55228 0.44771,1 1,1l0,-2zm56.7071,1.70711c0.3905,-0.39052 0.3905,-1.02369 0,-1.41421l-6.364,-6.36396c-0.3905,-0.39053 -1.0236,-0.39053 -1.4142,0c-0.3905,0.39052 -0.3905,1.02369 0,1.41421l5.6569,5.65685l-5.6569,5.6569c-0.3905,0.3905 -0.3905,1.0236 0,1.4142c0.3906,0.3905 1.0237,0.3905 1.4142,0l6.364,-6.36399zm-56.7071,0.29289l56,0l0,-2l-56,0l0,2z"/>
 </g>
</svg>

<svg width="58" height="16" viewBox="0 0 58 16" fill="none" xmlns="http://www.w3.org/2000/svg">
<path d="M1 7C0.447715 7 4.82823e-08 7.44772 0 8C-4.82823e-08 8.55228 0.447715 9 1 9L1 7ZM57.7071 8.70711C58.0976 8.31659 58.0976 7.68342 57.7071 7.2929L51.3431 0.928937C50.9526 0.538412 50.3195 0.538412 49.9289 0.928936C49.5384 1.31946 49.5384 1.95263 49.9289 2.34315L55.5858 8L49.9289 13.6569C49.5384 14.0474 49.5384 14.6805 49.9289 15.0711C50.3195 15.4616 50.9526 15.4616 51.3431 15.0711L57.7071 8.70711ZM1 9L57 9L57 7L1 7L1 9Z" fill="#3594E3"/>
</svg>
